X:1
T:Höstsång
T:Höstsång
T:Bind 2, No. 19
T:Olof Wilhelm Uddén
T:C. F. Dahlgren
C:O. W. Uddén
Z:C. F. Dahlgren
%%score [ 1 2 3 4 ]
L:1/8
Q:1/4=92
M:4/4
K:Ab
V:1 treble-8 nm="T1"
V:2 treble-8 nm="T2"
V:3 bass nm="B1"
V:4 bass nm="B2"
V:1
"^Andante"!mf! c2 c3/2 B/ A2 A A | G2 c3/2 B/ A2 z2 |!p! c2 c3/2 d/ e2 e e | %3
w: 1.Hö- sten är kom- men, hör|stor- mar- nes gny!|Sva- nen tar af- sked och|
w: Blom- man har bäd- dat i|mos- san sin graf;|vå- gor- na bru- sa på|
w: 2.So- len är slock- nad, så|mörkt blir på hed;|regn- bäc- kar grå- ta längs|
w: Käl- lan på knä står in-|vid der- ras fot|och i sin ur- na tar|
 d2 d3/2 d/ !fermata!c2 z2 :|!pp! .c2 .c3/2 .c/ .c2 .c2 | .c2 .c3/2 .c/ .c2 z2 | %6
w: sva- lor- na fly.|1.Nec- ken mot klip- pan|gull- har- pan slår.|
w: vil- lan- de haf.|2.Som- marn här- ne- re|slu- tat sitt lopp;|
w: fjäl- lar- ne ned.|||
w: tå- rar- na mot.|||
!mf! A2 B3/2 B/!<(! c2 f3/2!<)! g/ | a2!>(! g3/2 c/!>)! !fermata!f2 z2 |] %8
w: Skogs- bru- den fäl- ler sitt|grön- skan- de hår.|
w: der ut- i sjer- nor- na|tin- drer hon opp.|
w: ||
w: ||
V:2
!mf! A2 A3/2 G/ F2 F F | =E2 G3/2 G/ F2 z2 |!p! A2 A3/2 B/ c2 c c | B2 B3/2 B/ !fermata!A2 z2 :| %4
w: 1.Hö- sten är kom- men, hör|stor- mar- nes gny!|Sva- nen tar af- sked och|sva- lor- na fly.|
w: Blom- man har bäd- dat i|mos- san sin graf;|vå- gor- na bru- sa på|vil- lan- de haf.|
w: 2.So- len är slock- nad, så|mörkt blir på hed;|regn- bäc- kar grå- ta längs|fjäl- lar- ne ned.|
w: Käl- lan på knä står in-|vid der- ras fot|och i sin ur- na tar|tå- rar- na mot.|
!pp! .G2 .G3/2 .G/ .A2 .A2 | .G2 .G3/2 .G/ .A2 z2 |!mf! F2 E3/2 E/!<(! A2 A3/2!<)! B/ | %7
w: 1.Nec- ken mot klip- pan|gull- har- pan slår.|Skogs- bru- den fäl- ler sitt|
w: 2.Som- marn här- ne- re|slu- tat sitt lopp;|der ut- i sjer- nor- na|
w: |||
w: |||
 c2!>(! B3/2 B/!>)! !fermata!A2 z2 |] %8
w: grön- skan- de hår.|
w: tin- drer hon opp.|
w: |
w: |
V:3
!mf! F,2 F,3/2 =E,/ F,2 C, C, | =E,2 E,3/2 E,/ F,2 z2 |!p! _E,2 E,3/2 E,/ A,2 A, A, | %3
w: 1.Hö- sten är kom- men, hör|stor- mar- nes gny!|Sva- nen tar af- sked och|
w: Blom- man har bäd- dat i|mos- san sin graf;|vå- gor- na bru- sa på|
w: 2.So- len är slock- nad, så|mörkt blir på hed;|regn- bäc- kar grå- ta längs|
w: Käl- lan på knä står in-|vid der- ras fot|och i sin ur- na tar|
 G,2 G,3/2 G,/ !fermata!E,2 z2 :|!pp! .=E,2 .E,3/2 .E,/ .F,2 .F,2 | .=E,2 .E,3/2 .E,/ .F,2 z2 | %6
w: sva- lor- na fly.|1.Nec- ken mot klip- pan|gull- har- pan slår.|
w: vil- lan- de haf.|2.Som- marn här- ne- re|slu- tat sitt lopp;|
w: fjäl- lar- ne ned.|||
w: tå- rar- na mot.|||
!mf! C,2 _E,3/2 E,/!<(! E,2 F,3/2!<)! F,/ | F,2!>(! =E,3/2 E,/!>)! !fermata!F,2 z2 |] %8
w: Skogs- bru- den fäl- ler sitt|grön- skan- de hår.|
w: der ut- i sjer- nor- na|tin- drer hon opp.|
w: ||
w: ||
V:4
!mf! F,,2 A,,3/2 C,/ F,,2 F,, F,, | C,2 C,3/2 C,/ F,,2 z2 |!p! A,,2 A,,3/2 A,,/ A,,2 A,, A,, | %3
w: 1.Hö- sten är kom- men, hör|stor- mar- nes gny!|Sva- nen tar af- sked och|
w: Blom- man har bäd- dat i|mos- san sin graf;|vå- gor- na bru- sa på|
w: 2.So- len är slock- nad, så|mörkt blir på hed;|regn- bäc- kar grå- ta längs|
w: Käl- lan på knä står in-|vid der- ras fot|och i sin ur- na tar|
 E,2 E,3/2 E,/ !fermata!A,,2 z2 :|!pp! .C,2 .B,,3/2 .B,,/ .A,,2 .F,,2 | %5
w: sva- lor- na fly.|1.Nec- ken mot klip- pan|
w: vil- lan- de haf.|2.Som- marn här- ne- re|
w: fjäl- lar- ne ned.||
w: tå- rar- na mot.||
 .G,,2 .C,3/2 .C,/ .F,,2 z2 |!mf! F,,2 G,,3/2 G,,/!<(! A,,2 D,3/2!<)! D,/ | %7
w: gull- har- pan slår.|Skogs- bru- den fäl- ler sitt|
w: slu- tat sitt lopp;|der ut- i sjer- nor- na|
w: ||
w: ||
 C,2!>(! C,3/2 C,/!>)! !fermata!F,,2 z2 |] %8
w: grön- skan- de hår.|
w: tin- drer hon opp.|
w: |
w: |

